X: 2314
T: Badger, The
R: jig
M: 6/8
K: Dmajor
|:d2a afe|dBA F2A|d2a afd|e3 edB|
d2a afe|dBA F2A|BdB BAB|1 d3 dBA:|2 d3 dAd||
|:e3-ede|fdB A2d|e3-ede|f3 fed|
e3-ede|fdB AFA|BdB BAB|1 d3 dAd:|2 d3 dBA||

